X:17559
T:Tom Maguire's Fancy
M:C|
L:1/8
C:John Brady
R:reel
D:Oisn MacDiarmada, Brian Fitzgerald and Michel  Ruanaigh: Traditional
D:Music on Fiddle, Banjo and Harp
Z:Devin McCabe
K:G
AFFE EF-FE|D2 E/2F/2G ADFA|BGGF GBdg|fdcc cddc|
!BGGF GBAc|ABBd gdBG|DEFG AdcB-|1~B2AF GBdB:|2~B2AF GABc|
!:dggg bgag|fdcc cddc|Bggg fgaf|defg gfga|
!_b=ffg gfcd|=fdcA dcAF|DGBd gfde|1fdcA GABc:|2fdcA GBdB||
